X:5026
T:Head On You There!
M:4/4
R:Reel
L:1/8
C:Aidan Crossey
K:G
GA|B2Bd cBAG|BABd g2GA|B2Bd cBAG|BAAB A2GA|
B2Bd cBAG|BABd g2ga|bagf gdBG|A2BG FG||
GA|gfga bgdB|(3GFG Bd (3GFG Bd|gfga bgdB|(3ABA (3GFE D2Bd|
gfga bgdB|cBcd agfe|dBGB cAFA|A2BG FG||
